svgs/sharp-light/h1.svg

<svg xmlns="http://www.w3.org/2000/svg" viewBox="0 0 576 512"><!--! Font Awesome Pro 6.6.0 by @fontawesome - https://fontawesome.com License - https://fontawesome.com/license (Commercial License) Copyright 2024 Fonticons, Inc. --><path d="M32 80l0-16L0 64 0 80 0 256 0 432l0 16 32 0 0-16 0-160 256 0 0 160 0 16 32 0 0-16 0-176 0-176 0-16-32 0 0 16 0 160L32 240 32 80zm352.5 73.6L464 103.9 464 416l-64 0-16 0 0 32 16 0 80 0 80 0 16 0 0-32-16 0-64 0 0-336 0-16-16 0-8 0-4.6 0-3.9 2.4L384 116.1l0 37.7 .5-.3z"/></svg>

<svg xmlns="http://www.w3.org/2000/svg" viewBox="0 0 576 512"><!--! Font Awesome Pro 6.5.2 by @fontawesome - https://fontawesome.com License - https://fontawesome.com/license (Commercial License) Copyright 2024 Fonticons, Inc. --><path d="M32 80V64H0V80 256 432v16H32V432 272H288V432v16h32V432 256 80 64H288V80 240H32V80zm352.5 73.6L464 103.9V416H400 384v32h16 80 80 16V416H560 496V80 64H480h-8-4.6l-3.9 2.4L384 116.1v37.7l.5-.3z"/></svg>
